public/favicon.svg

<svg width="256" height="256" viewBox="0 0 256 256" fill="none" xmlns="http://www.w3.org/2000/svg">
<path d="M77.9662 196.59C67.7295 196.59 58.2328 194.987 49.4762 191.78C40.8428 188.45 33.3195 183.763 26.9062 177.72C20.6162 171.677 15.6828 164.585 12.1062 156.445C8.52951 148.182 6.74117 139.117 6.74117 129.25C6.74117 119.383 8.52951 110.38 12.1062 102.24C15.6828 93.9767 20.6162 86.8233 26.9062 80.78C33.3195 74.7367 40.8428 70.1117 49.4762 66.905C58.2328 63.575 67.7295 61.91 77.9662 61.91C89.9295 61.91 100.598 64.0067 109.971 68.2C119.468 72.3933 127.361 78.4367 133.651 86.33L110.341 107.42C106.148 102.487 101.523 98.725 96.4662 96.135C91.5328 93.545 85.9828 92.25 79.8162 92.25C74.5128 92.25 69.6412 93.1133 65.2012 94.84C60.7612 96.5667 56.9378 99.095 53.7312 102.425C50.6478 105.632 48.1812 109.517 46.3312 114.08C44.6045 118.643 43.7412 123.7 43.7412 129.25C43.7412 134.8 44.6045 139.857 46.3312 144.42C48.1812 148.983 50.6478 152.93 53.7312 156.26C56.9378 159.467 60.7612 161.933 65.2012 163.66C69.6412 165.387 74.5128 166.25 79.8162 166.25C85.9828 166.25 91.5328 164.955 96.4662 162.365C101.523 159.775 106.148 156.013 110.341 151.08L133.651 172.17C127.361 179.94 119.468 185.983 109.971 190.3C100.598 194.493 89.9295 196.59 77.9662 196.59ZM194.229 196.59C183.622 196.59 173.385 195.295 163.519 192.705C153.775 189.992 145.82 186.538 139.654 182.345L151.679 155.335C157.475 159.035 164.135 162.118 171.659 164.585C179.305 166.928 186.89 168.1 194.414 168.1C199.47 168.1 203.54 167.668 206.624 166.805C209.707 165.818 211.927 164.585 213.284 163.105C214.764 161.502 215.504 159.652 215.504 157.555C215.504 154.595 214.147 152.252 211.434 150.525C208.72 148.798 205.205 147.38 200.889 146.27C196.572 145.16 191.762 144.05 186.459 142.94C181.279 141.83 176.037 140.412 170.734 138.685C165.554 136.958 160.805 134.738 156.489 132.025C152.172 129.188 148.657 125.55 145.944 121.11C143.23 116.547 141.874 110.812 141.874 103.905C141.874 96.135 143.97 89.105 148.164 82.815C152.48 76.525 158.894 71.4683 167.404 67.645C175.914 63.8217 186.52 61.91 199.224 61.91C207.734 61.91 216.059 62.8967 224.199 64.87C232.462 66.72 239.8 69.495 246.214 73.195L234.929 100.39C228.762 97.06 222.657 94.5933 216.614 92.99C210.57 91.2633 204.712 90.4 199.039 90.4C193.982 90.4 189.912 90.955 186.829 92.065C183.745 93.0517 181.525 94.4083 180.169 96.135C178.812 97.8617 178.134 99.835 178.134 102.055C178.134 104.892 179.429 107.173 182.019 108.9C184.732 110.503 188.247 111.86 192.564 112.97C197.004 113.957 201.814 115.005 206.994 116.115C212.297 117.225 217.539 118.643 222.719 120.37C228.022 121.973 232.832 124.193 237.149 127.03C241.465 129.743 244.919 133.382 247.509 137.945C250.222 142.385 251.579 147.997 251.579 154.78C251.579 162.303 249.42 169.272 245.104 175.685C240.91 181.975 234.559 187.032 226.049 190.855C217.662 194.678 207.055 196.59 194.229 196.59Z" fill="#50A89E"/>
</svg>

<svg width="256" height="256" fill="none" xmlns="http://www.w3.org/2000/svg"><path d="M77.97 196.59a82.23 82.23 0 0 1-28.5-4.81 68.44 68.44 0 0 1-22.56-14.06 66.01 66.01 0 0 1-14.8-21.28c-3.58-8.26-5.37-17.32-5.37-27.19 0-9.87 1.79-18.87 5.37-27.01a65.48 65.48 0 0 1 14.8-21.46A66.03 66.03 0 0 1 49.48 66.9a79.5 79.5 0 0 1 28.49-4.99c11.96 0 22.63 2.1 32 6.29a61.58 61.58 0 0 1 23.68 18.13l-23.3 21.09a45.52 45.52 0 0 0-13.88-11.28 35.27 35.27 0 0 0-16.65-3.89 40 40 0 0 0-14.62 2.59 31.62 31.62 0 0 0-11.47 7.58 36.24 36.24 0 0 0-7.4 11.66 42.56 42.56 0 0 0-2.59 15.17c0 5.55.86 10.6 2.6 15.17a38.54 38.54 0 0 0 7.4 11.84c3.2 3.2 7.02 5.67 11.46 7.4a39.99 39.99 0 0 0 14.62 2.59c6.16 0 11.71-1.3 16.65-3.88a45.52 45.52 0 0 0 13.87-11.29l23.31 21.09a64.07 64.07 0 0 1-23.68 18.13c-9.37 4.2-20.04 6.29-32 6.29Zm116.26 0c-10.6 0-20.84-1.3-30.71-3.88-9.75-2.72-17.7-6.17-23.87-10.37l12.03-27a87.82 87.82 0 0 0 19.98 9.25 77.35 77.35 0 0 0 22.75 3.51c5.06 0 9.13-.43 12.21-1.3 3.09-.98 5.3-2.22 6.66-3.7a7.94 7.94 0 0 0 2.22-5.54c0-2.97-1.35-5.3-4.07-7.03-2.71-1.73-6.22-3.15-10.54-4.26a328.99 328.99 0 0 0-14.43-3.33 157.08 157.08 0 0 1-15.73-4.25 65.68 65.68 0 0 1-14.24-6.66 34.29 34.29 0 0 1-10.55-10.92c-2.71-4.56-4.07-10.3-4.07-17.2 0-7.77 2.1-14.8 6.3-21.1 4.31-6.28 10.72-11.34 19.23-15.17 8.51-3.82 19.12-5.73 31.82-5.73 8.51 0 16.84.99 24.98 2.96a77.8 77.8 0 0 1 22.01 8.32l-11.28 27.2a83.9 83.9 0 0 0-18.32-7.4 63.86 63.86 0 0 0-17.57-2.59c-5.06 0-9.13.55-12.21 1.66-3.09 1-5.3 2.35-6.66 4.08a9.32 9.32 0 0 0-2.04 5.92c0 2.83 1.3 5.11 3.89 6.84 2.71 1.6 6.23 2.96 10.54 4.07 4.44.99 9.25 2.03 14.43 3.14 5.3 1.11 10.55 2.53 15.73 4.26a55.17 55.17 0 0 1 14.43 6.66 30.36 30.36 0 0 1 10.36 10.91c2.71 4.44 4.07 10.06 4.07 16.84a36.7 36.7 0 0 1-6.48 20.9c-4.19 6.3-10.54 11.35-19.05 15.17-8.39 3.83-19 5.74-31.82 5.74Z" fill="#50A89E"/></svg>
